packages/astro-components-stencil/src/icons/sim-card.svg

<svg xmlns="http://www.w3.org/2000/svg" viewBox="0 0 24 24"><g xmlns="http://www.w3.org/2000/svg" id="sim-card" fill-rule="nonzero">
            <path d="M19.99 4c0-1.1-.89-2-1.99-2h-7.17c-.53 0-1.04.21-1.42.59L4.59 7.41C4.21 7.79 4 8.3 4 8.83V20c0 1.1.9 2 2 2h12.01c1.1 0 1.99-.9 1.99-2l-.01-16zM8 19c-.55 0-1-.45-1-1s.45-1 1-1 1 .45 1 1-.45 1-1 1zm8 0c-.55 0-1-.45-1-1s.45-1 1-1 1 .45 1 1-.45 1-1 1zm-8-4c-.55 0-1-.45-1-1v-2c0-.55.45-1 1-1s1 .45 1 1v2c0 .55-.45 1-1 1zm4 4c-.55 0-1-.45-1-1v-2c0-.55.45-1 1-1s1 .45 1 1v2c0 .55-.45 1-1 1zm0-6c-.55 0-1-.45-1-1s.45-1 1-1 1 .45 1 1-.45 1-1 1zm4 2c-.55 0-1-.45-1-1v-2c0-.55.45-1 1-1s1 .45 1 1v2c0 .55-.45 1-1 1z"/>
        </g></svg>

<svg width="24" height="24" viewBox="0 0 24 24" fill="none" xmlns="http://www.w3.org/2000/svg">
<path fill-rule="evenodd" clip-rule="evenodd" d="M19.99 4C19.99 2.9 19.1 2 18 2H10.83C10.3 2 9.79 2.21 9.41 2.59L4.59 7.41C4.21 7.79 4 8.3 4 8.83V20C4 21.1 4.9 22 6 22H18.01C19.11 22 20 21.1 20 20L19.99 4ZM8 19C7.45 19 7 18.55 7 18C7 17.45 7.45 17 8 17C8.55 17 9 17.45 9 18C9 18.55 8.55 19 8 19ZM15 18C15 18.55 15.45 19 16 19C16.55 19 17 18.55 17 18C17 17.45 16.55 17 16 17C15.45 17 15 17.45 15 18ZM8 15C7.45 15 7 14.55 7 14V12C7 11.45 7.45 11 8 11C8.55 11 9 11.45 9 12V14C9 14.55 8.55 15 8 15ZM11 18C11 18.55 11.45 19 12 19C12.55 19 13 18.55 13 18V16C13 15.45 12.55 15 12 15C11.45 15 11 15.45 11 16V18ZM12 13C11.45 13 11 12.55 11 12C11 11.45 11.45 11 12 11C12.55 11 13 11.45 13 12C13 12.55 12.55 13 12 13ZM15 14C15 14.55 15.45 15 16 15C16.55 15 17 14.55 17 14V12C17 11.45 16.55 11 16 11C15.45 11 15 11.45 15 12V14Z" fill="black"/>
</svg>
